src/main/resources/icons/RubyIcons/icons/ruby/debugger/block.svg

<svg xmlns="http://www.w3.org/2000/svg" width="16" height="16" viewBox="0 0 16 16">
  <g fill="none" fill-rule="evenodd">
    <path fill="#F98B9E" fill-opacity=".6" d="M15,8 C15,11.866 11.866,15 8,15 C4.134,15 1,11.866 1,8 C1,4.134 4.134,1 8,1 C11.866,1 15,4.134 15,8"/>
    <path fill="#231F20" fill-opacity=".7" d="M6.90186916,12 C5.20093458,11.6915888 4.78037383,11.0934579 4.78037383,10.1401869 C4.78037383,10 4.79906542,9.62616822 4.79906542,9.46728972 C4.79906542,8.73831776 4.51869159,8.42990654 3.74299065,8.42990654 L3.5,8.42990654 L3.5,7.57009346 L3.74299065,7.57009346 C4.51869159,7.57009346 4.79906542,7.26168224 4.79906542,6.53271028 C4.79906542,6.37383178 4.78037383,6 4.78037383,5.85981308 C4.78037383,4.90654206 5.20093458,4.30841121 6.90186916,4 L7.09813084,4.74766355 C5.97663551,5.05607477 5.8271028,5.34579439 5.8271028,6.02803738 C5.8271028,6.21495327 5.84579439,6.52336449 5.84579439,6.71962617 C5.84579439,7.44859813 5.49065421,7.80373832 4.87383178,8 C5.5,8.20560748 5.84579439,8.55140187 5.84579439,9.28037383 C5.84579439,9.47663551 5.8271028,9.78504673 5.8271028,9.97196262 C5.8271028,10.6542056 5.97663551,10.9439252 7.09813084,11.2523364 L6.90186916,12 Z M9.09626168,12 L8.9,11.2523364 C10.0214953,10.9439252 10.171028,10.6542056 10.171028,9.97196262 C10.171028,9.78504673 10.1523364,9.47663551 10.1523364,9.28037383 C10.1523364,8.55140187 10.5074766,8.19626168 11.1242991,8 C10.4981308,7.79439252 10.1523364,7.44859813 10.1523364,6.71962617 C10.1523364,6.52336449 10.171028,6.21495327 10.171028,6.02803738 C10.171028,5.34579439 10.0214953,5.05607477 8.9,4.74766355 L9.09626168,4 C10.7971963,4.30841121 11.217757,4.90654206 11.217757,5.85981308 C11.217757,6 11.1990654,6.37383178 11.1990654,6.53271028 C11.1990654,7.26168224 11.4794393,7.57009346 12.2551402,7.57009346 L12.4981308,7.57009346 L12.4981308,8.42990654 L12.2551402,8.42990654 C11.4794393,8.42990654 11.1990654,8.73831776 11.1990654,9.46728972 C11.1990654,9.62616822 11.217757,10 11.217757,10.1401869 C11.217757,11.0934579 10.7971963,11.6915888 9.09626168,12 Z"/>
  </g>
</svg>

<svg xmlns="http://www.w3.org/2000/svg" width="16" height="16" viewBox="0 0 16 16"><rect id="frame" width="16" height="16" fill="none"/><g fill="none" fill-rule="evenodd"><path fill="#F98B9E" fill-opacity=".6" d="M15 8A7 7 0 1 1 1 8a7 7 0 0 1 14 0"/><path fill="#231F20" fill-opacity=".7" d="M6.902 12c-1.701-.308-2.122-.907-2.122-1.86 0-.14.02-.514.02-.673 0-.729-.281-1.037-1.057-1.037H3.5v-.86h.243c.776 0 1.056-.308 1.056-1.037 0-.16-.019-.533-.019-.673 0-.953.42-1.552 2.122-1.86l.196.748c-1.121.308-1.27.598-1.27 1.28 0 .187.018.495.018.692 0 .729-.355 1.084-.972 1.28.626.206.972.551.972 1.28 0 .197-.019.505-.019.692 0 .682.15.972 1.271 1.28L6.902 12zm2.194 0l-.196-.748c1.121-.308 1.271-.598 1.271-1.28 0-.187-.019-.495-.019-.692 0-.729.355-1.084.972-1.28-.626-.206-.972-.551-.972-1.28 0-.197.019-.505.019-.692 0-.682-.15-.972-1.271-1.28L9.096 4c1.701.308 2.122.907 2.122 1.86 0 .14-.019.514-.019.673 0 .729.28 1.037 1.056 1.037h.243v.86h-.243c-.776 0-1.056.308-1.056 1.037 0 .16.019.533.019.673 0 .953-.42 1.552-2.122 1.86z"/></g></svg>
